coreui/free/cil-image-plus.svg

<svg xmlns="http://www.w3.org/2000/svg" viewBox="0 0 512 512">
  <path fill="var(--ci-primary-color, currentColor)" d="M336,72V40H40V472H472V184H440v25.68l-64.769-64.77L306,214.142l-100-100-134,134V72Zm39.231,118.166L440,254.935v93.207L328.628,236.769ZM206,159.4l234,234V440H72V293.4Z" class="ci-primary"/>
  <polygon fill="var(--ci-primary-color, currentColor)" points="448 16 416 16 416 64 368 64 368 96 416 96 416 144 448 144 448 96 496 96 496 64 448 64 448 16" class="ci-primary"/>
</svg>

<svg viewBox="0 0 512 512" xmlns="http://www.w3.org/2000/svg"><g><path d="M336 72V40H40v432h432V184h-32v25.68l-64.769-64.77L306 214.14l-100-100 -134 134V71.99Zm39.23 118.166l64.769 64.769v93.207l-111.38-111.38Zm-169.231-30.77l234 234v46.6h-368v-146.6Z"/><path d="M448 16l-32 0 0 48 -48 0 0 32 48 0 0 48 32 0 0-48 48 0 0-32 -48 0 0-48Z"/></g></svg>
